icons/issue-draft-16.svg

<svg xmlns="http://www.w3.org/2000/svg" width="16" height="16" viewBox="0 0 16 16"><path d="M14.307 11.655a.75.75 0 01.165 1.048 8.05 8.05 0 01-1.769 1.77.75.75 0 01-.883-1.214 6.552 6.552 0 001.44-1.439.75.75 0 011.047-.165zm-2.652-9.962a.75.75 0 011.048-.165 8.05 8.05 0 011.77 1.769.75.75 0 01-1.214.883 6.552 6.552 0 00-1.439-1.44.75.75 0 01-.165-1.047zM6.749.097a8.074 8.074 0 012.502 0 .75.75 0 11-.233 1.482 6.558 6.558 0 00-2.036 0A.751.751 0 016.749.097zM.955 6.125a.75.75 0 01.624.857 6.558 6.558 0 000 2.036.75.75 0 11-1.482.233 8.074 8.074 0 010-2.502.75.75 0 01.858-.624zm14.09 0a.75.75 0 01.858.624c.13.829.13 1.673 0 2.502a.75.75 0 11-1.482-.233 6.558 6.558 0 000-2.036.75.75 0 01.624-.857zm-8.92 8.92a.75.75 0 01.857-.624 6.558 6.558 0 002.036 0 .75.75 0 11.233 1.482c-.829.13-1.673.13-2.502 0a.75.75 0 01-.624-.858zm-4.432-3.39a.75.75 0 011.048.165 6.552 6.552 0 001.439 1.44.751.751 0 01-.883 1.212 8.05 8.05 0 01-1.77-1.769.75.75 0 01.166-1.048zm2.652-9.962A.75.75 0 014.18 2.74a6.556 6.556 0 00-1.44 1.44.751.751 0 01-1.212-.883 8.05 8.05 0 011.769-1.77.75.75 0 011.048.166z"/></svg>

<svg xmlns="http://www.w3.org/2000/svg" width="16" height="16" viewBox="0 0 16 16">
  <defs/>
  <path d="M14.307,11.655 C14.642,11.899 14.716,12.368 14.472,12.703 C13.978,13.382 13.381,13.979 12.703,14.473 C12.368,14.717 11.898,14.643 11.655,14.307 C11.411,13.972 11.485,13.503 11.82,13.259 C12.372,12.857 12.858,12.372 13.26,11.82 C13.504,11.486 13.972,11.412 14.307,11.655 Z M11.655,1.693 C11.899,1.358 12.368,1.284 12.703,1.528 C13.382,2.022 13.979,2.619 14.473,3.297 C14.717,3.632 14.643,4.102 14.307,4.345 C13.972,4.589 13.503,4.515 13.259,4.18 C12.857,3.628 12.372,3.142 11.82,2.74 C11.486,2.496 11.412,2.028 11.655,1.693 Z M6.749,0.097 C7.578,-0.033 8.422,-0.033 9.251,0.097 C9.66,0.161 9.94,0.545 9.875,0.955 C9.811,1.364 9.427,1.643 9.018,1.579 C8.343,1.473 7.657,1.473 6.982,1.579 C6.573,1.643 6.189,1.364 6.124,0.955 C6.06,0.545 6.34,0.161 6.749,0.097 Z M0.955,6.125 C1.364,6.19 1.643,6.573 1.579,6.982 C1.473,7.657 1.473,8.343 1.579,9.018 C1.643,9.427 1.364,9.811 0.955,9.875 C0.545,9.94 0.161,9.66 0.097,9.251 C-0.033,8.422 -0.033,7.578 0.097,6.749 C0.162,6.34 0.546,6.06 0.955,6.125 Z M15.045,6.125 C15.454,6.06 15.838,6.34 15.903,6.749 C16.033,7.578 16.033,8.422 15.903,9.251 C15.839,9.66 15.455,9.94 15.045,9.875 C14.636,9.811 14.357,9.427 14.421,9.018 C14.527,8.343 14.527,7.657 14.421,6.982 C14.357,6.573 14.636,6.19 15.045,6.125 Z M6.125,15.045 C6.19,14.636 6.573,14.357 6.982,14.421 C7.657,14.527 8.343,14.527 9.018,14.421 C9.427,14.357 9.811,14.636 9.875,15.045 C9.94,15.455 9.66,15.839 9.251,15.903 C8.422,16.033 7.578,16.033 6.749,15.903 C6.34,15.838 6.06,15.454 6.125,15.045 Z M1.693,11.655 C2.028,11.411 2.497,11.485 2.741,11.82 C3.143,12.372 3.628,12.858 4.18,13.26 C4.503,13.508 4.569,13.968 4.33,14.297 C4.09,14.626 3.632,14.703 3.297,14.472 C2.618,13.978 2.021,13.381 1.527,12.703 C1.283,12.368 1.358,11.898 1.693,11.655 Z M4.345,1.693 C4.588,2.028 4.514,2.496 4.18,2.74 C3.628,3.142 3.142,3.628 2.74,4.18 C2.492,4.503 2.032,4.569 1.703,4.33 C1.374,4.09 1.297,3.632 1.528,3.297 C2.022,2.618 2.619,2.021 3.297,1.527 C3.632,1.283 4.102,1.358 4.345,1.693 Z"/>
</svg>
